X: 16598
T: Hand Organ, The
R: hornpipe
M: 4/4
K: Dmajor
|:(3ABc|d>AF>E D>FA>d|B>GE>C D2 E>F|(3GFG A>F G>EC>d|c>AA>^G A>Bc>A|
d2 A>F D>FA>d|B>GE>C D2 E>F|(3GFG A>F G>EC>D|E2 D>C D2:|
|:A>G|F>DA>D F>DA>D|(3GFG B>A (3GFG B>A|F>DA>D F>DA>D|(3CDE A>E (3CDE A>E|
F>D (3DDD F>D (3DDD|(3GFG B>A (3GFG B>c|d2 c2 B>GE>C|D>dA>F D2:|

